proprietary/assets/icons/functioneel/blog.svg

<svg height="48" width="48" xmlns="http://www.w3.org/2000/svg"><path d="m41.199 12.199-14.398 14.403c-.602.598-1.402 1-2.199 1.398l-6 2.602c-.602.199-1 .398-1.602.398-1 0-2-.398-2.801-1.199-1.199-1.199-1.398-2.801-.801-4.403l2.602-6c.199-.797.801-1.598 1.398-2.199l11-11-6.398-.199c-1.801 0-10.199 0-15.398.801-1.801.398-3.203 1.801-3.402 3.598-1.399 7.601-1.2 16.8-.001 23.203a3.83 3.83 0 0 0 3.403 3.398c4.598.801 12 .801 14.797.801l9 5.801c.602.398 1.203.199 1.402-.402.199-.2.199-.399.199-.802v-.199l-1.398-4.801 6.797-.598c1.801-.402 3.203-1.602 3.402-3.402 1.199-6.597 1.199-14.796.398-21.199zm-22 8.403-2.598 6.199c-.203.398.199 1 .797.801l6.204-2.602c.398-.199.598-.398 1-.602l16.597-16.597c1-1.402.199-2.602-1.199-3.801-1.199-1.199-2.398-2.199-3.801-.801l-16.398 16.403c-.199.199-.402.598-.602 1zm0 0"/></svg>

<svg xmlns="http://www.w3.org/2000/svg" width="48" height="48" fill="rgb(0%,0%,0%)" xmlns:v="https://vecta.io/nano"><path d="M41.199 12.199L26.801 26.602c-.602.598-1.402 1-2.199 1.398l-6 2.602C18 30.801 17.602 31 17 31c-1 0-2-.398-2.801-1.199C13 28.602 12.801 27 13.398 25.398l2.602-6c.199-.797.801-1.598 1.398-2.199l11-11L22 6c-1.801 0-10.199 0-15.398.801-1.801.398-3.203 1.801-3.402 3.598C1.801 18 2 27.199 3.199 33.602A3.83 3.83 0 0 0 6.602 37c4.598.801 12 .801 14.797.801l9 5.801c.602.398 1.203.199 1.402-.402.199-.2.199-.399.199-.802v-.199l-1.398-4.801 6.797-.598c1.801-.402 3.203-1.602 3.402-3.402C42 26.801 42 18.602 41.199 12.199zm-22 8.403l-2.598 6.199c-.203.398.199 1 .797.801L23.602 25c.398-.199.598-.398 1-.602L41.199 7.801c1-1.402.199-2.602-1.199-3.801-1.199-1.199-2.398-2.199-3.801-.801L19.801 19.602c-.199.199-.402.598-.602 1zm0 0"/></svg>
